icons/report.svg

<?xml version="1.0" standalone="no"?><!-- Generator: Gravit.io --><svg xmlns="http://www.w3.org/2000/svg" xmlns:xlink="http://www.w3.org/1999/xlink" width="96" height="96"><path d=" M 66.11098979892 16.87649201015 C 60.634571818000175 13.71658141528027 54.38504570170852 12 48 12 C 38.5 12 29.3 15.8 22.5 22.5 C 15.8 29.3 12 38.5 12 48 L 12 48 C 12 57.5 15.8 66.7 22.5 73.5 C 22.807858023906327 73.80333070002536 23.12063524657823 74.10071736820896 23.43813679846 74.39207648903 L 66.11098979892 16.87649201015 Z  M 72.56186320154 21.60792351097 C 72.87936475342177 21.899282631791042 73.19214197609368 22.19666929997465 73.5 22.5 C 80.2 29.3 84 38.5 84 48 C 84 57.5 80.2 66.7 73.5 73.5 C 66.7 80.2 57.5 84 48 84 C 41.61495429829148 84 35.36542818199983 82.28341858471973 29.88901020108 79.12350798985 L 72.56186320154 21.60792351097 Z  M 4 48 C 4 36.3 8.6 25.1 16.9 16.9 C 25.1 8.6 36.3 4 48 4 C 59.7 4 70.9 8.6 79.1 16.9 C 87.4 25.1 92 36.3 92 48 C 92 59.7 87.4 70.9 79.1 79.1 C 70.9 87.4 59.7 92 48 92 C 36.3 92 25.1 87.4 16.9 79.1 C 8.6 70.9 4 59.7 4 48 L 4 48 Z " fill-rule="evenodd" fill="rgb(69,69,69)" stroke="none"/><mask id="_mask_5vZOxgjMyT15BE2Cm0Se0sziImr7ePuU"><path d=" M 66.11098979892 16.87649201015 C 60.634571818000175 13.71658141528027 54.38504570170852 12 48 12 C 38.5 12 29.3 15.8 22.5 22.5 C 15.8 29.3 12 38.5 12 48 L 12 48 C 12 57.5 15.8 66.7 22.5 73.5 C 22.807858023906327 73.80333070002536 23.12063524657823 74.10071736820896 23.43813679846 74.39207648903 L 66.11098979892 16.87649201015 Z  M 72.56186320154 21.60792351097 C 72.87936475342177 21.899282631791042 73.19214197609368 22.19666929997465 73.5 22.5 C 80.2 29.3 84 38.5 84 48 C 84 57.5 80.2 66.7 73.5 73.5 C 66.7 80.2 57.5 84 48 84 C 41.61495429829148 84 35.36542818199983 82.28341858471973 29.88901020108 79.12350798985 L 72.56186320154 21.60792351097 Z  M 4 48 C 4 36.3 8.6 25.1 16.9 16.9 C 25.1 8.6 36.3 4 48 4 C 59.7 4 70.9 8.6 79.1 16.9 C 87.4 25.1 92 36.3 92 48 C 92 59.7 87.4 70.9 79.1 79.1 C 70.9 87.4 59.7 92 48 92 C 36.3 92 25.1 87.4 16.9 79.1 C 8.6 70.9 4 59.7 4 48 L 4 48 Z " fill-rule="evenodd" fill="white" stroke="none"/></mask><path d=" M 66.11098979892 16.87649201015 C 60.634571818000175 13.71658141528027 54.38504570170852 12 48 12 C 38.5 12 29.3 15.8 22.5 22.5 C 15.8 29.3 12 38.5 12 48 L 12 48 C 12 57.5 15.8 66.7 22.5 73.5 C 22.807858023906327 73.80333070002536 23.12063524657823 74.10071736820896 23.43813679846 74.39207648903 L 66.11098979892 16.87649201015 Z  M 72.56186320154 21.60792351097 C 72.87936475342177 21.899282631791042 73.19214197609368 22.19666929997465 73.5 22.5 C 80.2 29.3 84 38.5 84 48 C 84 57.5 80.2 66.7 73.5 73.5 C 66.7 80.2 57.5 84 48 84 C 41.61495429829148 84 35.36542818199983 82.28341858471973 29.88901020108 79.12350798985 L 72.56186320154 21.60792351097 Z  M 4 48 C 4 36.3 8.6 25.1 16.9 16.9 C 25.1 8.6 36.3 4 48 4 C 59.7 4 70.9 8.6 79.1 16.9 C 87.4 25.1 92 36.3 92 48 C 92 59.7 87.4 70.9 79.1 79.1 C 70.9 87.4 59.7 92 48 92 C 36.3 92 25.1 87.4 16.9 79.1 C 8.6 70.9 4 59.7 4 48 L 4 48 Z " fill-rule="evenodd" fill="none" stroke="none" stroke-width="16" mask="url(#_mask_5vZOxgjMyT15BE2Cm0Se0sziImr7ePuU)"/></svg>

<svg xmlns="http://www.w3.org/2000/svg" width="96" height="96"><path d="M66.111 16.876C60.635 13.716 54.385 12 48 12c-9.5 0-18.7 3.8-25.5 10.5C15.8 29.3 12 38.5 12 48s3.8 18.7 10.5 25.5c.308.303.62.6.938.892l42.673-57.516zm6.45 4.732c.318.291.631.589.939.892C80.2 29.3 84 38.5 84 48s-3.8 18.7-10.5 25.5C66.7 80.2 57.5 84 48 84c-6.385 0-12.635-1.717-18.111-4.876l42.673-57.516zM4 48c0-11.7 4.6-22.9 12.9-31.1C25.1 8.6 36.3 4 48 4c11.7 0 22.9 4.6 31.1 12.9C87.4 25.1 92 36.3 92 48c0 11.7-4.6 22.9-12.9 31.1C70.9 87.4 59.7 92 48 92c-11.7 0-22.9-4.6-31.1-12.9C8.6 70.9 4 59.7 4 48z" fill-rule="evenodd" fill="#454545"/></svg>
